svg/white/sberbank.svg

<svg xmlns="http://www.w3.org/2000/svg" width="32" height="32" viewBox="0 0 32 32">
  <path fill="#FFF" d="M16,32 C7.163444,32 0,24.836556 0,16 C0,7.163444 7.163444,0 16,0 C24.836556,0 32,7.163444 32,16 C32,24.836556 24.836556,32 16,32 Z M22.6809817,7.36781609 L11.694479,13.6168582 L6.45766935,10.6398467 L5.91779207,11.7126437 L11.694479,15.0383142 L23.625767,8.22605364 L22.6809817,7.36781609 Z M20.2785278,6 L11.694479,10.908046 L7.88834415,8.73563218 L7.10552209,9.6743295 L11.694479,12.2758621 L21.5472394,6.64367816 L20.2785278,6 Z M24.4625768,9.11111111 L11.694479,16.4061303 L5.48589024,12.8659004 L5.18895773,14.045977 L11.694479,17.7471264 L25.1644172,10.0498084 L24.4625768,9.11111111 Z M26.406135,12.5708812 L25.81227,11.0689655 L11.694479,19.1149425 L5.00000068,15.3333333 L5.00000068,16.0574713 C4.99948329,17.521873 5.29315436,18.9716486 5.86380434,20.3218391 C6.40368162,21.627433 7.18650368,22.789272 8.21227052,23.8084291 C9.25585331,24.8098851 10.4165895,25.5785441 11.694479,26.1149425 C13.0619882,26.7049808 14.492663,27 15.9865034,27 C17.4625279,27 18.8932027,26.7049808 20.2785278,26.1149425 C21.5886156,25.5811258 22.7807896,24.7975389 23.7877302,23.8084291 C24.7856152,22.8044005 25.5825507,21.6212507 26.1361963,20.3218391 L26.406135,19.5977011 C26.801865,18.4535632 27,17.2734866 27,16.0574713 C27,14.8414559 26.801865,13.6796169 26.406135,12.5708812 Z"/>
</svg>

<svg xmlns="http://www.w3.org/2000/svg" width="32" height="32"><path fill="#FFF" d="M16 32C7.163 32 0 24.837 0 16S7.163 0 16 0s16 7.163 16 16-7.163 16-16 16zm6.681-24.632l-10.987 6.249-5.236-2.977-.54 1.073 5.776 3.325 11.932-6.812-.945-.858zM20.279 6l-8.585 4.908-3.806-2.172-.782.938 4.588 2.602 9.853-5.632L20.28 6zm4.184 3.111l-12.769 7.295-6.208-3.54-.297 1.18 6.505 3.701 13.47-7.697-.701-.939zm1.943 3.46l-.594-1.502-14.118 8.046L5 15.333v.724c0 1.465.293 2.915.864 4.265a10.568 10.568 0 0 0 2.348 3.486 11.341 11.341 0 0 0 3.482 2.307c1.368.59 2.799.885 4.293.885 1.476 0 2.906-.295 4.292-.885a10.85 10.85 0 0 0 3.509-2.307 11.142 11.142 0 0 0 2.348-3.486l.27-.724c.396-1.144.594-2.325.594-3.54 0-1.217-.198-2.378-.594-3.487z"/></svg>
